app-icon.svg

<svg xmlns="http://www.w3.org/2000/svg" width="16" height="16" viewBox="0 0 16 16">
  <g fill="#fff" fill-rule="evenodd" transform="translate(-32 -32)">
    <path d="M32,34.0068455 C32,33.4507801 32.4509752,33 32.990778,33 L37.5089948,33 C37.7801695,33 38.1569366,33.1569366 38.3483734,33.3483734 L39.6516266,34.6516266 C39.8440279,34.8440279 40.2307968,35 40.5004358,35 L47.0029699,35 C47.5536144,35 48,35.455761 48,36.0024733 L48,44.9914698 C48,46.1007504 47.1054862,47 46.0059397,47 L33.9940603,47 C32.8927712,47 32,46.1029399 32,44.9941413 L32,34.0068455 Z M32,37 L48,37 L48,38 L32,38 L32,37 Z"/>
    <path d="M32,34.0068455 C32,33.4507801 32.4509752,33 32.990778,33 L37.5089948,33 C37.7801695,33 38.1569366,33.1569366 38.3483734,33.3483734 L39.6516266,34.6516266 C39.8440279,34.8440279 40.2307968,35 40.5004358,35 L47.0029699,35 C47.5536144,35 48,35.455761 48,36.0024733 L48,44.9914698 C48,46.1007504 47.1054862,47 46.0059397,47 L33.9940603,47 C32.8927712,47 32,46.1029399 32,44.9941413 L32,34.0068455 Z M32,37 L48,37 L48,38 L32,38 L32,37 Z"/>
  </g>
</svg>

<?xml version="1.0" encoding="UTF-8" standalone="no"?>
<svg
   xmlns:dc="http://purl.org/dc/elements/1.1/"
   xmlns:cc="http://creativecommons.org/ns#"
   xmlns:rdf="http://www.w3.org/1999/02/22-rdf-syntax-ns#"
   xmlns:svg="http://www.w3.org/2000/svg"
   xmlns="http://www.w3.org/2000/svg"
   xmlns:sodipodi="http://sodipodi.sourceforge.net/DTD/sodipodi-0.dtd"
   xmlns:inkscape="http://www.inkscape.org/namespaces/inkscape"
   width="16"
   height="16"
   viewBox="0 0 16 16"
   id="svg2"
   version="1.1"
   inkscape:version="0.91 r13725"
   sodipodi:docname="app-icon.svg">
  <metadata
     id="metadata14">
    <rdf:RDF>
      <cc:Work
         rdf:about="">
        <dc:format>image/svg+xml</dc:format>
        <dc:type
           rdf:resource="http://purl.org/dc/dcmitype/StillImage" />
      </cc:Work>
    </rdf:RDF>
  </metadata>
  <defs
     id="defs12" />
  <sodipodi:namedview
     pagecolor="#ffffff"
     bordercolor="#666666"
     borderopacity="1"
     objecttolerance="10"
     gridtolerance="10"
     guidetolerance="10"
     inkscape:pageopacity="0"
     inkscape:pageshadow="2"
     inkscape:window-width="1522"
     inkscape:window-height="961"
     id="namedview10"
     showgrid="false"
     inkscape:zoom="42.322214"
     inkscape:cx="8.0526735"
     inkscape:cy="8"
     inkscape:window-x="3985"
     inkscape:window-y="823"
     inkscape:window-maximized="0"
     inkscape:current-layer="svg2" />
  <g
     transform="matrix(0.625,0,0,0.625,-17,-17)"
     id="g4"
     style="fill:#000000;fill-opacity:1;fill-rule:evenodd">
    <path
       d="M 32,34.006845 C 32,33.45078 32.450975,33 32.990778,33 l 4.518217,0 c 0.271174,0 0.647942,0.156937 0.839378,0.348373 l 1.303254,1.303254 C 39.844028,34.844028 40.230797,35 40.500436,35 l 6.502534,0 C 47.553614,35 48,35.455761 48,36.002473 l 0,8.988997 C 48,46.10075 47.105486,47 46.00594,47 L 33.99406,47 C 32.892771,47 32,46.10294 32,44.994141 L 32,34.006845 Z M 32,37 l 16,0 0,1 -16,0 0,-1 z"
       id="path6"
       style="fill:#000000;fill-opacity:1"
       inkscape:connector-curvature="0" />
    <path
       d="M 32,34.006845 C 32,33.45078 32.450975,33 32.990778,33 l 4.518217,0 c 0.271174,0 0.647942,0.156937 0.839378,0.348373 l 1.303254,1.303254 C 39.844028,34.844028 40.230797,35 40.500436,35 l 6.502534,0 C 47.553614,35 48,35.455761 48,36.002473 l 0,8.988997 C 48,46.10075 47.105486,47 46.00594,47 L 33.99406,47 C 32.892771,47 32,46.10294 32,44.994141 L 32,34.006845 Z M 32,37 l 16,0 0,1 -16,0 0,-1 z"
       id="path8"
       style="fill:#000000;fill-opacity:1"
       inkscape:connector-curvature="0" />
  </g>
</svg>
